X:210
T:I'll Be Rested
C:Mike Compton
N:From the Nashville Bluegrass Band CD "To Be His Child" Transcribed by Mike Stangeland
R:bluegrass
L:1/8
Q:1/4=219
M:4/4
K:C
z8 | z2 [^d2G2] [d2G2] [d3/2G3/2]z/ | "C"[c2G2] [e2_B2] G2 [BG][cG] | [cG][cG] [_BG][BG] [BG][BG] [c2G2] | 
c2 _B2 G2 [BG][cG] | [cG][cG] [cG][cG] [cG][cG] [c2G2] | [^dG]z [c2G2] G2 [dG]z | 
z2 [c4G4] [c2G2] | [^dG]z [c2G2] [_B2G2] [cG][cG] | [cG][cG] [cG][cG] [cG][cG] [c2G2] | 
"F"[eB][fc] [fc][fc] [fc][fc] [fc][fc] | ^d2 =d2 c2 e2 | "C"g2 a2 ^d2 e2 | c2 [c2G2] A2 c2 | 
z2 {d}e2 g2 a2 | ^d2 e2 c2 A2 | "G"[e2G2] [^d2^F2] [=d2=F2] [cE][cE] | "C"[cE][cE] [cE][cE] [cE][cE] (3G,A,B, | 
C2 [e2c2G2] C2 [e2c2G2] | C2 [e2c2G2] C2 [e2c2G2] | z8 | z8 | z8 | z8 | 


